packages/swarm-icons/src/icons/line/Home Selected.svg

<svg xmlns="http://www.w3.org/2000/svg" width="24" height="24" viewBox="0 0 24 24">
  <path fill="#757575" d="M10.4388102,15 L10.4388102,21.5 C10.4388102,21.7761424 10.2149526,22 9.93881022,22 L5,22 C4.72385763,22 4.5,21.7761424 4.5,21.5 L4.5,12 L2,12 C1.54175792,12 1.32490898,11.4349007 1.66551763,11.1283529 L11.6655176,2.12835293 C11.8556701,1.95721569 12.1443299,1.95721569 12.3344824,2.12835293 L22.3344824,11.1283529 C22.675091,11.4349007 22.4582421,12 22,12 L19.5,12 L19.5,21.5 C19.5,21.7761424 19.2761424,22 19,22 L14.1066987,22 C13.8305563,22 13.6066987,21.7761424 13.6066987,21.5 L13.6066987,15 L10.4388102,15 Z"/>
</svg>

<svg xmlns="http://www.w3.org/2000/svg" width="24" height="24"><path fill="#757575" d="M10.439 15v6.5a.5.5 0 01-.5.5H5a.5.5 0 01-.5-.5V12H2a.5.5 0 01-.334-.872l10-9a.5.5 0 01.668 0l10 9A.5.5 0 0122 12h-2.5v9.5a.5.5 0 01-.5.5h-4.893a.5.5 0 01-.5-.5V15h-3.168z"/></svg>
